X: 20771
Q: "Moderate."
M: 6/8
L: 1/8
K: G
[|\
d3 DEF | G3- G2D | BAG BAG | d3 A2z |
d3 B2G | (A3 {cB}A2)z | d3 B2G | {B}A3- A2z |\


